X:1
T:Title
L:1/8
Q:1/4=140
M:4/4
K:C
V:1 treble nm="Grand Piano"
V:1
 E4 E3 B | B8 | G2 B2 B2 AG | A8 | A2 A2 A2 A2 | G4 A4 | G2 AG F2 E2 | E8 | E4 E3 B | B8 | %10
w: ?????~????? * *||||||||||
 G2 B2 B2 AG | A8 | A2 A2 A2 A2 | G4 A4 | G2 AG F2 E2 | E8 | G4 F2 E2 | A4 F2 F2 | E8- | E8 | %20
w: ||||||||||
 G4 F2 E2 | A4 F4 | E8- | E8 |] %24
w: ||||

